X:4301
T: Bo'u Nashir Le'eretz Yafa
C: Yoram Harel Chaimov 1987
F: https://www.youtube.com/watch?v=bV1Kjc6FbyU
F: https://www.youtube.com/watch?v=s4gxSXmEYt0
F: https://www.youtube.com/watch?v=lWPqzbqj3Mc
F: https://www.youtube.com/watch?v=E4C4yZzd2WY
M: 6/8
L: 1/8
K: Am
Q: 1/4 = 150
%%MIDI program 40 violin
%%MIDI bassprog 20 reed organ
%%MIDI gchord f
%%MIDI bassvol 60
"Am"EAB c2A|cBA F3     |"Dm"DFG A2F|D3 z3        |\
DFG A2F    |A2F D3     |"Am"C2C G2F|E3 z3        | 
EAB c2A    |cBA F3     |"G"dcB dcB |"Am"E3 z3    |\
zAG F2A    |"G"zBA G2B |c2A B2G    |"Am"A2 z2 cd |:
ee2 cec    |"G"ddB G3  |"Am"ccd c2A|"G"BB^G E3   |\
"G"DFG AGF |"Am"EAB c2B|cee dcB    |[1"G"AB2-B2z :|"Am"^GA2-A3|






